svg/crop.svg

<svg xmlns="http://www.w3.org/2000/svg" viewBox="0 0 32 32" enable-background="new 0 0 32 32"><path d="M 8 4 L 8 8 L 4 8 L 4 10 L 8 10 L 8 23 L 8 24 L 9 24 L 22 24 L 22 28 L 24 28 L 24 24 L 28 24 L 28 22 L 11.4375 22 L 22 11.4375 L 22 21 L 24 21 L 24 9.4375 L 27.71875 5.71875 L 26.28125 4.28125 L 22.5625 8 L 11 8 L 11 10 L 20.5625 10 L 10 20.5625 L 10 4 L 8 4 z" color="#000" overflow="visible" enable-background="accumulate"/></svg>

<svg xmlns="http://www.w3.org/2000/svg" viewBox="0 0 32 32"><path d="M8 4v4H4v2h4v14h14v4h2v-4h4v-2H11.437L22 11.437V21h2V9.437l3.72-3.718-1.44-1.44L22.563 8H11v2h9.563L10 20.563V4H8z"/></svg>
